img/headerServices/2.svg

<svg width="46" height="46" viewBox="0 0 46 46" fill="none" xmlns="http://www.w3.org/2000/svg">
<g clip-path="url(#clip0_5_280)">
<path d="M44.6 16.7H41V2.3C40.9991 1.3064 40.1936 0.500879 39.2 0.5H6.8C5.8064 0.500879 5.00088 1.3064 5 2.3V16.7H1.4C0.902979 16.7 0.5 17.103 0.5 17.6V24.8C0.5 25.297 0.902979 25.7 1.4 25.7H5V33.8C5 34.0417 5.098 34.2733 5.27158 34.4416C5.09492 34.8024 5.0022 35.1983 5 35.6V37.4C5.00176 38.8906 6.20938 40.0982 7.7 40.1V42.8C7.70176 44.2906 8.90938 45.4982 10.4 45.5H14C15.4906 45.4982 16.6982 44.2906 16.7 42.8V40.1H29.3V42.8C29.3018 44.2906 30.5094 45.4982 32 45.5H35.6C37.0906 45.4982 38.2982 44.2906 38.3 42.8V40.1C39.7906 40.0982 40.9982 38.8906 41 37.4V35.6C40.9978 35.1983 40.9051 34.8024 40.7289 34.4416C40.902 34.2733 41 34.0417 41 33.8V25.7H44.6C45.097 25.7 45.5 25.297 45.5 24.8V17.6C45.5 17.103 45.097 16.7 44.6 16.7ZM38.3 32.9V27.0816L39.2 26.4818V32.9H38.3ZM13.1 32.9V30.2C13.1 29.9614 13.0051 29.7324 12.8363 29.5637L11.0363 27.7637C10.8676 27.5949 10.6386 27.5 10.4 27.5H9.5V12.2C9.50176 10.7094 10.7094 9.50176 12.2 9.5H33.8C35.2906 9.50176 36.4982 10.7094 36.5 12.2V27.5H35.6C35.3614 27.5 35.1324 27.5949 34.9637 27.7637L33.1637 29.5637C32.9949 29.7324 32.9 29.9614 32.9 30.2V32.9H13.1ZM6.8 32.9V26.4818L7.7 27.0816V32.9H6.8ZM9.5 29.3H10.0273L11.3 30.5727V32.9H9.5V29.3ZM34.7 30.5727L35.9727 29.3H36.5V32.9H34.7V30.5727ZM6.8 2.3H39.2V24.3184L38.3 24.9182V12.2C38.2969 9.71577 36.2842 7.70308 33.8 7.7H12.2C9.71577 7.70308 7.70308 9.71577 7.7 12.2V24.9182L6.8 24.3184V2.3ZM2.3 23.9V18.5H5V23.9H2.3ZM14.9 42.8C14.8996 43.2966 14.4966 43.6996 14 43.7H10.4C9.90342 43.6996 9.50044 43.2966 9.5 42.8V40.1H14.9V42.8ZM36.5 42.8C36.4996 43.2966 36.0966 43.6996 35.6 43.7H32C31.5034 43.6996 31.1004 43.2966 31.1 42.8V40.1H36.5V42.8ZM39.2 37.4C39.1996 37.8966 38.7966 38.2996 38.3 38.3H7.7C7.20342 38.2996 6.80044 37.8966 6.8 37.4V35.6C6.80044 35.1034 7.20342 34.7004 7.7 34.7H38.3C38.7966 34.7004 39.1996 35.1034 39.2 35.6V37.4ZM43.7 23.9H41V18.5H43.7V23.9Z" fill="#4D7B7D"/>
<path d="M15.4788 25.7001H30.5213C30.6439 25.7001 30.7647 25.675 30.8772 25.6267L35.056 23.8267C35.386 23.6843 35.6 23.3595 35.6 23V13.1C35.6163 12.124 34.8402 11.3189 33.8642 11.3H12.1359C11.1598 11.3189 10.3838 12.124 10.4 13.1V23C10.4 23.3595 10.614 23.6843 10.9441 23.8267L15.1228 25.6267C15.2353 25.675 15.3562 25.7001 15.4788 25.7001ZM12.1359 13.1H33.8V22.4077L30.3358 23.9001H27.5721L28.0863 23H30.65C31.1471 23 31.55 22.5971 31.55 22.1C31.55 21.603 31.1471 21.2001 30.65 21.2001H25.25C24.753 21.2001 24.35 21.603 24.35 22.1C24.35 22.5971 24.753 23 25.25 23H26.0134L25.4992 23.9001H18.5721L19.0863 23H21.65C22.1471 23 22.55 22.5971 22.55 22.1C22.55 21.603 22.1471 21.2001 21.65 21.2001H16.25C15.753 21.2001 15.35 21.603 15.35 22.1C15.35 22.5971 15.753 23 16.25 23H17.0134L16.4992 23.9001H15.6642L12.1961 22.4059L12.1359 13.1Z" fill="#4D7B7D"/>
<path d="M20.3 35.6001H16.7C16.203 35.6001 15.8 36.0031 15.8 36.5001C15.8 36.9971 16.203 37.4001 16.7 37.4001H20.3C20.797 37.4001 21.2 36.9971 21.2 36.5001C21.2 36.0031 20.797 35.6001 20.3 35.6001Z" fill="#4D7B7D"/>
<path d="M29.3 35.6001H25.7C25.203 35.6001 24.8 36.0031 24.8 36.5001C24.8 36.9971 25.203 37.4001 25.7 37.4001H29.3C29.797 37.4001 30.2 36.9971 30.2 36.5001C30.2 36.0031 29.797 35.6001 29.3 35.6001Z" fill="#4D7B7D"/>
<path d="M30.2 30.2H15.8C15.303 30.2 14.9 30.6029 14.9 31.1C14.9 31.597 15.303 32 15.8 32H30.2C30.697 32 31.1 31.597 31.1 31.1C31.1 30.6029 30.697 30.2 30.2 30.2Z" fill="#4D7B7D"/>
<path d="M30.2 27.5H15.8C15.303 27.5 14.9 27.903 14.9 28.4C14.9 28.897 15.303 29.3 15.8 29.3H30.2C30.697 29.3 31.1 28.897 31.1 28.4C31.1 27.903 30.697 27.5 30.2 27.5Z" fill="#4D7B7D"/>
</g>
<defs>
<clipPath id="clip0_5_280">
<rect width="45" height="45" fill="white" transform="translate(0.5 0.5)"/>
</clipPath>
</defs>
</svg>

<svg width="46" height="46" fill="none" xmlns="http://www.w3.org/2000/svg"><g clip-path="url(#a)" fill="#4D7B7D"><path d="M44.6 16.7H41V2.3A1.8 1.8 0 0 0 39.2.5H6.8A1.8 1.8 0 0 0 5 2.3v14.4H1.4a.9.9 0 0 0-.9.9v7.2a.9.9 0 0 0 .9.9H5v8.1c0 .242.098.473.272.642-.177.36-.27.756-.272 1.158v1.8a2.703 2.703 0 0 0 2.7 2.7v2.7a2.703 2.703 0 0 0 2.7 2.7H14a2.703 2.703 0 0 0 2.7-2.7v-2.7h12.6v2.7a2.703 2.703 0 0 0 2.7 2.7h3.6a2.703 2.703 0 0 0 2.7-2.7v-2.7a2.703 2.703 0 0 0 2.7-2.7v-1.8a2.673 2.673 0 0 0-.271-1.158A.895.895 0 0 0 41 33.8v-8.1h3.6a.9.9 0 0 0 .9-.9v-7.2a.9.9 0 0 0-.9-.9Zm-6.3 16.2v-5.818l.9-.6V32.9h-.9Zm-25.2 0v-2.7a.9.9 0 0 0-.264-.636l-1.8-1.8a.9.9 0 0 0-.636-.264h-.9V12.2a2.703 2.703 0 0 1 2.7-2.7h21.6a2.703 2.703 0 0 1 2.7 2.7v15.3h-.9a.9.9 0 0 0-.636.264l-1.8 1.8a.9.9 0 0 0-.264.636v2.7H13.1Zm-6.3 0v-6.418l.9.6V32.9h-.9Zm2.7-3.6h.527l1.273 1.273V32.9H9.5v-3.6Zm25.2 1.273 1.273-1.273h.527v3.6h-1.8v-2.327ZM6.8 2.3h32.4v22.018l-.9.6V12.2a4.505 4.505 0 0 0-4.5-4.5H12.2a4.505 4.505 0 0 0-4.5 4.5v12.718l-.9-.6V2.3ZM2.3 23.9v-5.4H5v5.4H2.3Zm12.6 18.9a.9.9 0 0 1-.9.9h-3.6a.901.901 0 0 1-.9-.9v-2.7h5.4v2.7Zm21.6 0a.9.9 0 0 1-.9.9H32a.901.901 0 0 1-.9-.9v-2.7h5.4v2.7Zm2.7-5.4a.9.9 0 0 1-.9.9H7.7a.901.901 0 0 1-.9-.9v-1.8a.9.9 0 0 1 .9-.9h30.6a.9.9 0 0 1 .9.9v1.8Zm4.5-13.5H41v-5.4h2.7v5.4Z"/><path d="M15.479 25.7H30.52a.901.901 0 0 0 .356-.073l4.179-1.8A.9.9 0 0 0 35.6 23v-9.9a1.77 1.77 0 0 0-1.736-1.8H12.136a1.77 1.77 0 0 0-1.736 1.8V23a.9.9 0 0 0 .544.827l4.179 1.8a.902.902 0 0 0 .356.073Zm-3.343-12.6H33.8v9.308L30.336 23.9h-2.764l.514-.9h2.564a.9.9 0 1 0 0-1.8h-5.4a.9.9 0 1 0 0 1.8h.763l-.514.9h-6.927l.514-.9h2.564a.9.9 0 1 0 0-1.8h-5.4a.9.9 0 1 0 0 1.8h.763l-.514.9h-.835l-3.468-1.494-.06-9.306ZM20.3 35.6h-3.6a.9.9 0 0 0 0 1.8h3.6a.9.9 0 0 0 0-1.8Zm9 0h-3.6a.9.9 0 0 0 0 1.8h3.6a.9.9 0 0 0 0-1.8Zm.9-5.4H15.8a.9.9 0 0 0 0 1.8h14.4a.9.9 0 0 0 0-1.8Zm0-2.7H15.8a.9.9 0 0 0 0 1.8h14.4a.9.9 0 0 0 0-1.8Z"/></g><defs><clipPath id="a"><path fill="#fff" transform="translate(.5 .5)" d="M0 0h45v45H0z"/></clipPath></defs></svg>
